app/assets/v2/images/hackathon/onboarding_v2/icon-03-choose.svg

<svg width="68" height="68" viewBox="0 0 68 68" fill="none" xmlns="http://www.w3.org/2000/svg">
<path d="M48.875 58.4375C51.809 58.4375 54.1875 56.059 54.1875 53.125C54.1875 50.191 51.809 47.8125 48.875 47.8125C45.941 47.8125 43.5625 50.191 43.5625 53.125C43.5625 56.059 45.941 58.4375 48.875 58.4375Z" stroke="#6F3FF5" stroke-width="2" stroke-miterlimit="10" stroke-linecap="round"/>
<path d="M48.875 39.3125C51.809 39.3125 54.1875 36.934 54.1875 34C54.1875 31.066 51.809 28.6875 48.875 28.6875C45.941 28.6875 43.5625 31.066 43.5625 34C43.5625 36.934 45.941 39.3125 48.875 39.3125Z" stroke="#6F3FF5" stroke-width="2" stroke-miterlimit="10" stroke-linecap="round"/>
<path d="M48.875 20.1875C51.809 20.1875 54.1875 17.809 54.1875 14.875C54.1875 11.941 51.809 9.5625 48.875 9.5625C45.941 9.5625 43.5625 11.941 43.5625 14.875C43.5625 17.809 45.941 20.1875 48.875 20.1875Z" stroke="#6F3FF5" stroke-width="2" stroke-miterlimit="10" stroke-linecap="round"/>
<path d="M19.5076 33.3199L17.4463 27.1149C16.8301 25.2662 18.8276 23.6299 20.5276 24.6074L26.2226 27.9012L33.5963 32.1512C35.0201 32.9587 35.0201 35.0199 33.5963 35.8274L26.2226 40.0774L20.5276 43.3712C18.8276 44.3486 16.8301 42.7124 17.4463 40.8636L19.5076 34.6586C19.6563 34.2336 19.6563 33.7662 19.5076 33.3199Z" fill="#6F3FF5"/>
<path d="M10.625 34.0425H25.755" stroke="#6F3FF5" stroke-width="2" stroke-miterlimit="10" stroke-linecap="round"/>
</svg>

<svg width="68" height="68" fill="none" xmlns="http://www.w3.org/2000/svg"><path d="M48.875 58.438a5.313 5.313 0 100-10.626 5.313 5.313 0 000 10.626zM48.875 39.313a5.313 5.313 0 100-10.626 5.313 5.313 0 000 10.625zM48.875 20.188a5.313 5.313 0 100-10.626 5.313 5.313 0 000 10.626z" stroke="#6F3FF5" stroke-width="2" stroke-miterlimit="10" stroke-linecap="round"/><path d="M19.508 33.32l-2.062-6.205c-.616-1.849 1.382-3.485 3.082-2.508l5.695 3.294 7.373 4.25c1.424.808 1.424 2.869 0 3.676l-7.373 4.25-5.695 3.294c-1.7.978-3.698-.659-3.082-2.507l2.062-6.205a2.064 2.064 0 000-1.34z" fill="#6F3FF5"/><path d="M10.625 34.042h15.13" stroke="#6F3FF5" stroke-width="2" stroke-miterlimit="10" stroke-linecap="round"/></svg>
